!!!OTL: Geming yaokao laobaixing
!!!ARE: Asia, China,ÿHubei
!! II, 233
!!!SCT: C1876
!!!YEM: Copyright 1995, estate of Helmut Schaffrath.
**kern
*ICvox
*Ivox
!! Mixed meters:  2/4; 3/4
*M3/4
*k[]
*C:
{8.dd
16cc
8dd
8ee
=1
[2dd
=2
4dd]
8dd
16a
16cc
=3
8dd
4.dd}
=4
{8.a
16cc
8cc
8a
=5
8cc
4dd
8cc
=6
8a
4.g}
=7
{8.a
16cc
8a
8cc
8a
8cc
=8
*M2/4
8ee
4.dd}
=9
{8.a
16cc
8cc
8a
=10
8cc
4dd
8cc
=11
8a
4.g}
==
!!!AGN: Shange, Pange
!!!AMT: irregular
!!!AIN: vox
!!!EED: Helmut Schaffrath
!!!EEV: 1.0
*-
!!!ONB: Tied note syntax fixed by Craig Sapp, 2004/05/03/
